X:1
T:Fionlandia
M:4/4
L:1/4
K:F
 z A G A| B3 A| G A F3/2 G/2| G A3| A G A B-| B2 A G| A F3/2 G/2 A-|\
 A c c c| d3 A| A c c3/2 G/2| G B3-| B B A G| A3 F| F G G3/2 A/2| A4-|\
 A c c c| d3 A| A c c3/2 G/2| G B3-| B B A G| A3 F| F G G3/2 F/2| F4-|\
 F z3|

